X: 5605
T: Butlers Of Glen Avenue, The
R: jig
M: 6/8
K: Gmajor
|:DEG DEG|DEG B3|DEG B3|dBA dBA|
DEG DEG|DEG B3|dBd gfe|dBA G3:|
|:gab age|deg B3|gab age|dBd e2d|
gab age|deg B3|dBd gfe|dBa g3:|

